img/computer.svg

<svg width="104" height="104" viewBox="0 0 104 104" fill="none" xmlns="http://www.w3.org/2000/svg">
<path fill-rule="evenodd" clip-rule="evenodd" d="M14.4757 67.4659H85.5934V59.4827H14.4757V67.4659ZM63.7129 79.4431H67.6563V82.9719H32.4128V79.4431H36.3551C37.0105 79.4431 37.5404 78.9141 37.5404 78.2597V69.8327H62.5276V78.2597C62.5276 78.9141 63.0586 79.4431 63.7129 79.4431ZM14.4757 57.1159H85.5934V16.9515H14.4757V57.1159ZM13.2904 14.5847C12.6349 14.5847 12.1051 15.1137 12.1051 15.7681V68.6493C12.1051 69.3037 12.6349 69.8327 13.2904 69.8327H35.1698V77.0763H31.2275C30.572 77.0763 30.0422 77.6076 30.0422 78.2597V84.1553C30.0422 84.8074 30.572 85.3387 31.2275 85.3387H68.8416C69.4959 85.3387 70.0269 84.8074 70.0269 84.1553V78.2597C70.0269 77.6076 69.4959 77.0763 68.8416 77.0763H64.8982V69.8327H86.7787C87.433 69.8327 87.964 69.3037 87.964 68.6493V15.7681C87.964 15.1137 87.433 14.5847 86.7787 14.5847H13.2904Z" fill="#62E0D9"/>
<path fill-rule="evenodd" clip-rule="evenodd" d="M48.4119 61.9205C47.7579 61.9205 47.2266 62.451 47.2266 63.1039C47.2266 63.7569 47.7579 64.2873 48.4119 64.2873C49.0659 64.2873 49.5972 63.7569 49.5972 63.1039C49.5972 62.451 49.0659 61.9205 48.4119 61.9205Z" fill="#62E0D9"/>
<rect x="68.1972" y="37.8898" width="25.6206" height="52.795" rx="1.64118" fill="#181F2B" stroke="#62E0D9" stroke-width="1.64118"/>
<rect x="67.6725" y="43.2821" width="26.6701" height="0.591698" fill="white" stroke="#62E0D9" stroke-width="0.591698"/>
<rect x="67.6725" y="81.1507" width="26.6701" height="0.591698" fill="white" stroke="#62E0D9" stroke-width="0.591698"/>
<path fill-rule="evenodd" clip-rule="evenodd" d="M80.4148 86.7718C81.0695 86.7718 81.6001 86.242 81.6001 85.5884C81.6001 84.9349 81.0695 84.405 80.4148 84.405C79.7602 84.405 79.2296 84.9349 79.2296 85.5884C79.2296 86.242 79.7602 86.7718 80.4148 86.7718Z" stroke="#62E0D9" stroke-width="1.00971"/>
<path fill-rule="evenodd" clip-rule="evenodd" d="M57.4004 29.9689C57.3016 29.9689 57.3016 29.9689 57.2028 29.9689L51.9678 32.0398L46.0413 29.9689L40.5099 31.8426C40.3124 31.9412 40.1148 32.0398 40.1148 32.3357V47.2267C40.1148 47.5226 40.3124 47.7198 40.6087 47.7198C40.7075 47.7198 40.7075 47.7198 40.8062 47.7198L46.0413 45.6489L51.9678 47.7198L57.4991 45.8461C57.6967 45.7475 57.8942 45.5502 57.8942 45.353V30.462C57.8942 30.1661 57.6967 29.9689 57.4004 29.9689ZM51.9678 44.7613L46.0413 42.7643V31.4481L51.9678 33.4451V44.7613Z" fill="#62E0D9"/>
<path fill-rule="evenodd" clip-rule="evenodd" d="M42.4854 29.9689C41.1647 29.9689 40.1148 30.886 40.1148 32.0398C40.1148 33.5782 42.4854 35.8858 42.4854 35.8858C42.4854 35.8858 44.856 33.5782 44.856 32.0398C44.856 30.886 43.8062 29.9689 42.4854 29.9689ZM42.4854 32.9274C41.9748 32.9274 41.5736 32.5658 41.5736 32.1056C41.5736 31.6453 41.9748 31.2838 42.4854 31.2838C42.996 31.2838 43.3972 31.6453 43.3972 32.1056C43.3972 32.5658 42.996 32.9274 42.4854 32.9274Z" fill="white"/>
</svg>

<svg width="104" height="104" fill="none" xmlns="http://www.w3.org/2000/svg"><path fill-rule="evenodd" clip-rule="evenodd" d="M14.476 67.466h71.117v-7.983H14.476v7.983zm49.237 11.977h3.943v3.529H32.413v-3.529h3.942c.656 0 1.185-.529 1.185-1.183v-8.427h24.988v8.427c0 .654.53 1.183 1.185 1.183zM14.476 57.116h71.117V16.952H14.476v40.164zM13.29 14.585c-.655 0-1.185.529-1.185 1.183V68.65c0 .655.53 1.184 1.185 1.184h21.88v7.243h-3.943c-.655 0-1.185.532-1.185 1.184v5.895c0 .652.53 1.184 1.185 1.184h37.615c.654 0 1.185-.532 1.185-1.184V78.26c0-.652-.531-1.184-1.185-1.184h-3.944v-7.243h21.88c.655 0 1.186-.53 1.186-1.184V15.77c0-.655-.531-1.184-1.185-1.184H13.29z" fill="#62E0D9"/><path fill-rule="evenodd" clip-rule="evenodd" d="M48.412 61.92c-.654 0-1.185.531-1.185 1.184a1.185 1.185 0 002.37 0c0-.653-.531-1.184-1.185-1.184z" fill="#62E0D9"/><rect x="68.197" y="37.89" width="25.621" height="52.795" rx="1.641" fill="#181F2B" stroke="#62E0D9" stroke-width="1.641"/><path fill="#fff" stroke="#62E0D9" stroke-width=".592" d="M67.672 43.282h26.67v.592h-26.67zM67.672 81.151h26.67v.592h-26.67z"/><path clip-rule="evenodd" d="M80.415 86.772a1.184 1.184 0 10.002-2.369 1.184 1.184 0 00-.002 2.369z" stroke="#62E0D9" stroke-width="1.01"/><path fill-rule="evenodd" clip-rule="evenodd" d="M57.4 29.969h-.197l-5.235 2.07-5.927-2.07-5.531 1.874c-.198.098-.395.197-.395.493v14.89c0 .297.197.494.494.494h.197l5.235-2.071 5.927 2.07 5.531-1.873c.198-.098.395-.296.395-.493V30.462c0-.296-.197-.493-.494-.493zM51.968 44.76l-5.927-1.997V31.448l5.927 1.997v11.316z" fill="#62E0D9"/><path fill-rule="evenodd" clip-rule="evenodd" d="M42.485 29.969c-1.32 0-2.37.917-2.37 2.07 0 1.54 2.37 3.847 2.37 3.847s2.371-2.308 2.371-3.846c0-1.154-1.05-2.071-2.37-2.071zm0 2.958c-.51 0-.911-.361-.911-.821 0-.46.4-.822.911-.822s.912.361.912.822c0 .46-.401.821-.912.821z" fill="#fff"/></svg>
